school/img/country/GI.svg

<svg width="13" height="12" viewBox="0 0 13 12" fill="none" xmlns="http://www.w3.org/2000/svg">
<rect x="0.25" y="0.25" width="12.5" height="11.5" rx="1.75" fill="white" stroke="#F5F5F5" stroke-width="0.5"/>
<mask id="mask0" mask-type="alpha" maskUnits="userSpaceOnUse" x="0" y="0" width="13" height="12">
<rect x="0.25" y="0.25" width="12.5" height="11.5" rx="1.75" fill="white" stroke="white" stroke-width="0.5"/>
</mask>
<g mask="url(#mask0)">
<path fill-rule="evenodd" clip-rule="evenodd" d="M0 12H13V8H0V12Z" fill="#E34F4F"/>
<path fill-rule="evenodd" clip-rule="evenodd" d="M4.33337 7.99999H8.04766V4.79999H4.33337V7.99999Z" fill="#E34F4F"/>
<path fill-rule="evenodd" clip-rule="evenodd" d="M4.95239 8.00001H5.57144V7.20001H4.95239V8.00001Z" fill="#181A1A"/>
<path fill-rule="evenodd" clip-rule="evenodd" d="M6.80951 8.00001H7.42856V7.20001H6.80951V8.00001Z" fill="#181A1A"/>
<path fill-rule="evenodd" clip-rule="evenodd" d="M4.33337 4.8H4.95242V4H4.33337V4.8Z" fill="#181A1A"/>
<path fill-rule="evenodd" clip-rule="evenodd" d="M6.19049 4.8H6.80954V4H6.19049V4.8Z" fill="#181A1A"/>
<path fill-rule="evenodd" clip-rule="evenodd" d="M5.57141 4.8H6.19046V4H5.57141V4.8Z" fill="#181A1A"/>
<path fill-rule="evenodd" clip-rule="evenodd" d="M7.42859 4.8H8.04764V4H7.42859V4.8Z" fill="#181A1A"/>
<path fill-rule="evenodd" clip-rule="evenodd" d="M4.33337 4.00001H4.95242V3.20001H4.33337V4.00001Z" fill="#E34F4F"/>
<path fill-rule="evenodd" clip-rule="evenodd" d="M6.19049 4.00001H6.80954V3.20001H6.19049V4.00001Z" fill="#E34F4F"/>
<path fill-rule="evenodd" clip-rule="evenodd" d="M5.57141 4.00001H6.19046V3.20001H5.57141V4.00001Z" fill="#E34F4F"/>
<path fill-rule="evenodd" clip-rule="evenodd" d="M7.42859 4.00001H8.04764V3.20001H7.42859V4.00001Z" fill="#E34F4F"/>
</g>
</svg>

<svg width="13" height="12" fill="none" xmlns="http://www.w3.org/2000/svg"><rect x=".25" y=".25" width="12.5" height="11.5" rx="1.75" fill="#fff" stroke="#F5F5F5" stroke-width=".5"/><mask id="a" maskUnits="userSpaceOnUse" x="0" y="0" width="13" height="12"><rect x=".25" y=".25" width="12.5" height="11.5" rx="1.75" fill="#fff" stroke="#fff" stroke-width=".5"/></mask><g mask="url(#a)" fill-rule="evenodd" clip-rule="evenodd"><path d="M0 12h13V8H0v4zm4.333-4h3.715V4.8H4.333V8z" fill="#E34F4F"/><path d="M4.952 8h.62v-.8h-.62V8zM6.81 8h.619v-.8h-.62V8zM4.333 4.8h.62V4h-.62v.8zm1.857 0h.62V4h-.62v.8z" fill="#181A1A"/><path d="M5.571 4.8h.62V4h-.62v.8zm1.858 0h.619V4h-.62v.8z" fill="#181A1A"/><path d="M4.333 4h.62v-.8h-.62V4zM6.19 4h.62v-.8h-.62V4z" fill="#E34F4F"/><path d="M5.571 4h.62v-.8h-.62V4zm1.858 0h.619v-.8h-.62V4z" fill="#E34F4F"/></g></svg>
